X:1
T:(1892)
T:                                      Nellie Pearson Arr. by George Barker (1852 - c.1916) 
T:Summer House Polka 
%%score ( 1 2 )
L:1/8
Q:1/4=84
M:2/4
K:D
V:1 treble-8 nm="Guitare classique"
V:2 treble-8 
V:1
"_" A | f>e dA | Be gf/e/ | z [FAd] z [EGc] | z2 !4!a2 ||"_""^V" !1!a/!3!f/!2!d/f/ !4!bf | %6
 af z f | a/f/d/f/ a!4!d' |"^VIII" !3!c'g z [eg] | !4!d'/g/e/g/ !3!c'/g/e/g/ |"^V" !4!be z e | %11
"^₵2" !4!a/c/A/c/ e^e |{/^e} fd z d | a/f/d/f/ bf | af z f | a/f/d/f/ ad' | c'g z g | %17
 d'/g/e/g/ c'/g/e/g/ | be z e | a/c/A/c/ ge | d2 D2 ||[K:A]"_" (f/e/)c/A/ (g/e/)c/A/ | %22
"^₵5" z a z a | (b/a/)e/c/ (c'/a/)e/c/ | z f !arpeggio![Adf]2 |"^₵7" c'/b/f/d/ (d'/b/)f/d/ | %26
 z !3!f' f'2 | !3!f'>e' f'>e' | z"^IX" c' c'!0!e | (f/e/)c/A/ (g/e/)c/A/ | z a z a | %31
 (b/a/)e/c/ (c'/a/)e/c/ | z f [Adf]2 | c'/"_cresc."b/f/d/!<(! (d'/b/)f/d/!<)! | z f' f'2 | %35
 !4!e'!1!c'/!2!a/ !0!eg | z a a2 ||"^VI" e/!3!d/!1!G/d/ !4!c'd | !3!bd E,d |"^₵5" a/e/!2!c/e/ be | %40
 ae z e | !4!a/!2!d/!3!B/d/ !4!gd | f/c/A/c/ ec | e/!3!c/!0!=G/c/ eB | !3!fB e2 | %45
"^VI" e/d/G/d/ c'd | bd E,d | a/e/c/e/ be | ae z e |"^₵7" b/f/d/f/ !4!d'f |"^₵5" a/e/c/e/ c'e | %51
 g/e/B/e/ (b/e'/)"^Hr.12"e'' |"^rit.""^₵2" a!4!g !2!=g2 ||[K:D]"^V""^a tempo" a/f/d/f/ bf | %54
 af z f | a/f/d/f/ ad' | c'g z [eg] | d'/g/e/g/ c'/g/e/g/ |"^V" be z e | a/c/A/c/ e^e/f/ | fd z d | %61
 a/f/d/f/ bf | af z f | a/f/d/f/ ad' | c'g z g | d'/g/e/g/ c'/g/e/g/ | be z e |"^₵2" a/c/A/c/ ge | %68
 !>!dd/d/ dd | ffff | !>!gg/g/ gg | !>!ee/e/ ee | !>!dd/d/ dd | !>!cc/c/ cc | !>!df/f/ ff | ffff | %76
 !>!gg/g/ gg | !>!ee/e/ ee | !>!dd/d/ dd | !>!cc/c/ cc |"_cresc." d3!<(! [Ace] | f2"^₵2" [ca]2 | %82
"^₵7"{/!4!d'} d'2 z3/2 [DFAd]/!<)! |"_" [DFAd]4 |] %84
V:2
 x | [DAd]2 [FA]2 | [G,G]2 [E,GB]2 | A,2 A,2 | A,2 !arpeggio![Gc]2 || D2 A,d | Dd A,d | D2 A,2 | %8
 E,e E,2 | A,2 E,2 | A,c E,c | A,2 A,2 | DA A,A | D2 A,d | Dd A,d | D2 A,2 | A,e E,e | A,2 E,2 | %18
 A,c E,c | A,2 A,2 | [DA]2 D2 ||[K:A] A,2 z2 | A,[ce] E,[ce] | A,2 E,2 | D[Ad] D2 | D2 z2 | %26
 D2 [Da]2 | [E,gb]2 [E,gb]2 | A,[ea] [E,ea]2 | A,2 E,2 | A,[ce] E,[ce] | A,2 E,2 | D[Ad] D2 | %33
 D2 z2 | D2 [Da]2 | E,2 z2 | A,[ce] [A,ce]2 || !2!E2 E,B | GB E,B | A,2 E,c | A,c E,c | %41
 !1!B,2 E,B | A,2 E,A | ^A,2 B,^G | ^DA [EGB]2 | E2 E,B | GB E,B | A,2 E,2 | A,c E,c | D2 Dd | %50
 A,2 z c | E,2 E,2 | [A,Ac]!1![B,Bd] !3![CAe]2 ||[K:D] D2 A,d | Dd A,d | D2 A,2 | E,e E,2 | %57
 A,2 E,2 | A,c E,c | A,2 A,2 | DA A,A | D2 A,d | Dd A,d | D2 A,2 | A,e E,e | A,2 E,2 | A,c E,c | %67
 A,2 A,2 | [DA]2 z2 | !4![Fd]!1![Ed]!0![Dd]!4![Cd] | [B,GB]2 z2 | [G,GB]2 z2 | [A,FA]2 z2 | %73
 [A,EG]2 z2 | [DA]2 z2 | [Fd][Ed][Dd][Cd] | [B,GB]2 z2 | [G,GB]2 z2 | [A,FA]2 z2 | [A,EG]2 z2 | %80
 [FA]3 A, | [DAd]2 [A,A]2 | [Ddf]2 x2 | x4 |] %84

